X: 13296
T: Flags Of Dublin, The
R: reel
M: 4/4
K: Dmajor
|:dB|A2 FA BddB|A2 (3.F.G.A BE E2|A2 FA Bddg|fdBc d2 dB|
AD (3.F.G.A BddB|AD (3.F.G.A BEEB|A2 FA Bddg|fdBc d2 (3ABc:|
|:dcdf e3g|fdec dcBA|dcdf e3g|fdBc d2 (3ABc|
dcdf e3g|fdec dcBA|GB B2 Bcdg|fdBc d3B:|

